X: 102
T: Fye my Dear Fye
%R: waltz
M: 3/8
L: 1/8
Z: 2014 John Chambers <jc:trillian.mit.edu>
B: Chas & Sam Thompson "Twenty Four Country Dances for the Year 1802", London 1802, p.10 #2
F: http://folkopedia.efdss.org/images/4/41/Thompson_24_1802.PDF
K: G
|:\
gdb | gdb | eee | e2f | gG/A/B/c/ | dBG |\
ADD | D2f | gdg | ece | dBd | cAc |
BdG | AGF | GGG | G3 :||: ddd | eee |\
ccc | ddd | BBB | cAG | FD/E/F/D/ | G3 :|
% - - - - - - - - - - - - - - - - - - - - - - - - -
%%begintext align
%% Change sides and back again lead down the
%% middle up again and allemande
%%endtext
% - - - - - - - - - - - - - - - - - - - - - - - - -

%%sep 1 1 500
%%sep 1 1 500
